X:346 
T:Tip Top Hornpipe 
M:4/4 
K:G 
Bc B2 dcdB | c2 e2 ed e2 | AG A2 cBcA | Bcde d4 | 
Bc B2 dcdB | c2 e2 ed e2 | d2 F2 FcBA | G2 G2 G4 :|| 
[K:D]A2 FG A2 Bc | d2 d2 f4 | g2 e2 ed e2 | f2 d2 dc d2 | 
A2 FG A2 Bc | d2 d2 f4 | g2 e2 egfe | d2 d2 d4 :|| 

